X: 41995
T: Walnut Tree, The
R: reel
M: 4/4
K: Amixolydian
A2 cf ec A2|BAFA EAFA|A2 cf ec A2|BAFA E2 FB
[1|ABcf ec A2|dcBA F2 EF|A2 cf ec A2|BAFA A4:|
[2|cAFA c2 AF|dcBA F2 EF|ABcf ec A2|BAFA A4||
e2 gd e2 a2|gedc BG|e2 gd e2 a2|abag a4|
abag ge e2|eged BGGB|ABcf ec A2|BAFA A4:|
c2 Ac B2 BG|cAcf ecA2|c2 Ac B2 BG|GBdG BdGB|
c2 Ac B2 BG|cAcf ecA2|A2 cf ec A2|BAFA A4:|

